X:EJ-47
T:"Åkes trerepriser"
T:(Totakt-pols, nr. EJ-47)
N:Variant såsom den spelas på CD:n
R:Totakt-pols
Q:1/4=108
M:2/4
L:1/8
K:A

|: aaec | d2 B2 | A3/2c1/2eg | aecA | aaec | d2 Bd | c1/2B1/2ABG | A2 A2 :|
|: EE E2 | AA A2 | AcBd | d2 c2 | aaec | d2 Bd | c1/2B1/2ABG | A2 A2 :|
|: A"^*"gfd | ce [e2e2] | cAB"^*"G | A2 A2 | A"^*"gfd | ce [e2e2] | cAB"^*"G | A2 A2 :|

(:musicend:)
Tonerna märkta med * spelas lite färgade, något lägre än g och G

(:music:)
